X: 58
T:Kerfunten Jig, The
M:6/8
L:1/8
C:Comp. Hammy Hamilton
R:Double Jig
K:G
~B3 BAG|d3 efg|d^cd edB|~A3 ABc|!
~B3 BAG|d2d efg|~d3 edB|AGF G3:|!
|:~g3 gab|~e3 edB|~g3 gab|bag ~a3|!
~g3 gab|~e3 efg|d^cd edB|AGF G3:|]!
